src/svgs/search.svg

<?xml version="1.0" encoding="UTF-8" standalone="no"?>
<!-- Created with Inkscape (http://www.inkscape.org/) -->

<svg
   xmlns:dc="http://purl.org/dc/elements/1.1/"
   xmlns:cc="http://creativecommons.org/ns#"
   xmlns:rdf="http://www.w3.org/1999/02/22-rdf-syntax-ns#"
   xmlns:svg="http://www.w3.org/2000/svg"
   xmlns="http://www.w3.org/2000/svg"
   xmlns:sodipodi="http://sodipodi.sourceforge.net/DTD/sodipodi-0.dtd"
   xmlns:inkscape="http://www.inkscape.org/namespaces/inkscape"
   width="20"
   height="20"
   id="svg5738"
   version="1.1"
   inkscape:version="0.48.5 r10040"
   sodipodi:docname="search.svg">
  <defs
     id="defs5740" />
  <sodipodi:namedview
     id="base"
     pagecolor="#ffffff"
     bordercolor="#666666"
     borderopacity="1.0"
     inkscape:pageopacity="0.0"
     inkscape:pageshadow="2"
     inkscape:zoom="16"
     inkscape:cx="11.996171"
     inkscape:cy="2.8901858"
     inkscape:document-units="px"
     inkscape:current-layer="layer1"
     showgrid="false"
     inkscape:window-width="1033"
     inkscape:window-height="844"
     inkscape:window-x="20"
     inkscape:window-y="20"
     inkscape:window-maximized="0">
    <inkscape:grid
       type="xygrid"
       id="grid5746"
       empspacing="5"
       visible="true"
       enabled="true"
       snapvisiblegridlinesonly="true" />
  </sodipodi:namedview>
  <metadata
     id="metadata5743">
    <rdf:RDF>
      <cc:Work
         rdf:about="">
        <dc:format>image/svg+xml</dc:format>
        <dc:type
           rdf:resource="http://purl.org/dc/dcmitype/StillImage" />
        <dc:title />
      </cc:Work>
    </rdf:RDF>
  </metadata>
  <g
     inkscape:label="Layer 1"
     inkscape:groupmode="layer"
     id="layer1"
     transform="translate(0,-1032.3622)">
    <path
       style="color:#000000;fill:#000000;fill-opacity:1;fill-rule:nonzero;stroke:none;stroke-width:1;marker:none;visibility:visible;display:inline;overflow:visible;enable-background:accumulate"
       d="M 8.5 4 C 6.0147 4 4 6.0147 4 8.5 C 4 10.9853 6.0147 13 8.5 13 C 9.354 13 10.16355 12.75695 10.84375 12.34375 L 10.875 12.3125 L 14.28125 15.71875 C 14.462214 15.899714 14.723858 16 15 16 C 15.552285 16 16 15.552285 16 15 C 16 14.723858 15.899714 14.462214 15.71875 14.28125 L 12.3125 10.875 L 12.34375 10.84375 C 12.75695 10.16355 13 9.354 13 8.5 C 13 6.0147 10.9853 4 8.5 4 z M 8.5 5.5 C 10.1568 5.5 11.5 6.8431 11.5 8.5 C 11.5 10.1568 10.1568 11.5 8.5 11.5 C 6.8431 11.5 5.5 10.1568 5.5 8.5 C 5.5 6.8431 6.8431 5.5 8.5 5.5 z "
       transform="translate(0,1032.3622)"
       id="path3409" />
  </g>
</svg>

<?xml version="1.0" encoding="UTF-8" standalone="yes"?>
<svg viewBox="0 0 20 20">
  <path d="M8.5,4C6,4,4,6,4,8.5S6,13,8.5,13c0.9,0,1.7-0.2,2.3-0.7l0,0l3.4,3.4c0.2,0.2,0.4,0.3,0.7,0.3c0.6,0,1-0.4,1-1
	c0-0.3-0.1-0.5-0.3-0.7l-3.4-3.4l0,0c0.4-0.7,0.7-1.5,0.7-2.3C13,6,11,4,8.5,4z M8.5,5.5c1.7,0,3,1.3,3,3c0,1.7-1.3,3-3,3
	c-1.7,0-3-1.3-3-3C5.5,6.8,6.8,5.5,8.5,5.5z"/>
</svg>
